X: 1
T: Polska efter Carl Gustaf Holmberg
O: Ringkarleby
R: Hamburska
N: Learned from David Bastviken, Aug 1996
Z: John Chambers <jc@trillian.mit.edu>
M: 3/4
L: 1/8
K: D
|: A | d2 FG E>F | D>F EG F2 | A2 B2 e>d | c>B AA/c/ B/d/c/e/ |  d2 FG E>F |
| D>F EG F2 | A2 B2 e>d | (3cBc d3 :: F | D2 F2 A>F | G>G (3GFG A>F | D2 F2 A>F |
| G>G (3GFG A>F |  D2 F2 A>F | G>G (3GFG A>A |  d2 FG E>G | F/E/D/C/ D3 :|
